X:75
T: Phyllis' Kitchen
C: BB
R: hornpipe
Q: 1/8=330
M: C|
L: 1/8
K: Dmix
"D"D2 FA dAFD|"C"EGCG EGCG|"D"D2 FA dAFA|"G"G2 EF "C"Gc (3cBc|
"D"D2 FA dAFD|"C"EGcd edce|"D"fd (3d^cd "C"=cG (3GFG|"Am7"cAGE "D"D4 :|
"D"fage fddf|"C"ecgc acgc|"D"Adfa "Em"gfed|"G"(3B^cd ef "C"g3 e|
"D"fage fddf|"C"ecgc edce|"D"fd (3d^cd "C"=cG (3GFG|"Am7"cAGE "D"D4 :|
